X:25
T:I buried my wife and danced on her grave
R:Jig
O:Irish
M:6/8
L:1/8
K:G
|:DED F2 G|AdB cAF|G2A BAG|F2 F GEA|
DED F2G|AdB cAF|G2A BAG|AFD D2A:|
|: d2e fed| faf gfe| d2e fed| dcA dcA|
d2e fed| faf gfe |dcA BAG|1 AFD D2A 
:|2 AFD D2|
